X: 35327
T: Rosemary Lane
R: jig
M: 6/8
K: Dmajor
FEF DFA|dce dcB|AdB AFD|EFD EAG|
FEF DFA|dce dcB|Ade faf|gec d3:|
|:aba fed|gfg ecA|fed Bcd|edB ABc|
ded AFA|Bed cBA|faf gec|Adc d3:|

